X:646
T:Maggie's Reel
C:Joe Buchanan's Scottish Tome - Page 195.1
I:195 1
Z:Carl Allison
C:Hame Farers
R:Reel
L:1/8
M:4/4
K:D
F/>E/ | "D"D/F/A/B/ A/F/E/D/ | dd/A/ "G"B/A/B/d/ | "D"A/B/d/A/ B/A/F/D/ | "E"B,/E/E/F/ "A7"E/G/F/E/ |
"D"D/F/A/B/ A/F/E/D/ | "D"d/e/f/d/ "G"B/A/F/A/ | "D"dd/B/ A/F/E/D/ | "A7"B,/D/D/E/ D :|
A/c/ | "D"d/e/f/d/ "A7"c/a/^g/a/ | f/d/A/F/ "Em"B/A/F/G/ | "D"A/d/c/d/ f/d/c/d/ | "Em"B/e/e/f/ "A7"eA/c/ |
"D"d/e/f/d/ "A"e/c/A/F/ | G/A/B/G/ "D"A/d/F/D/ | "G"G/A/B/A/ "A7"A/B/c/A/ | "D"dd/c/ dA/c/ |
"D"d/e/f/d/ "A7"c/a/^g/a/ | f/d/A/F/ "Em"B/A/F/G/ | "D"A/d/c/d/ f/d/c/d/ | "Em"B/e/e/f/ "A7"eF/E/ |
"D"D/F/A/B/ A/F/E/D/ | d/e/f/d/ "G"B/A/F/A/ | "D"dd/B/ A/F/E/D/ | "A7"B,/D/D/E/ "D"D |]
W:Errata: Converted the two lead-in notes to 16th notes.

